icons/communication/email-lock-24.svg

<svg width="24" height="24" viewBox="0 0 24 24" fill="none" xmlns="http://www.w3.org/2000/svg">
<path fill-rule="evenodd" clip-rule="evenodd" d="M15.5 17V16C15.5 14.3431 16.8431 13 18.5 13C20.1569 13 21.5 14.3431 21.5 16V17H22C22.5523 17 23 17.4477 23 18V23C23 23.5523 22.5523 24 22 24H15C14.4477 24 14 23.5523 14 23V18C14 17.4477 14.4477 17 15 17H15.5ZM17 16C17 15.1716 17.6716 14.5 18.5 14.5C19.3284 14.5 20 15.1716 20 16V17H17V16Z" fill="black"/>
<path fill-rule="evenodd" clip-rule="evenodd" d="M0 4.75C0 3.7835 0.783502 3 1.75 3H22.25C23.2165 3 24 3.7835 24 4.75V11.375C24 11.7892 23.6642 12.125 23.25 12.125C22.8358 12.125 22.5 11.7892 22.5 11.375V7.18716L12.7516 11.8231C12.276 12.0492 11.724 12.0492 11.2484 11.8231L1.5 7.18715V18.75C1.5 18.8881 1.61193 19 1.75 19H9.25C9.66421 19 10 19.3358 10 19.75C10 20.1642 9.66421 20.5 9.25 20.5H1.75C0.783502 20.5 0 19.7165 0 18.75V4.75ZM1.5 5.52618L11.8926 10.4685C11.9606 10.5008 12.0394 10.5008 12.1074 10.4685L22.5 5.52618V4.75C22.5 4.61193 22.3881 4.5 22.25 4.5H1.75C1.61193 4.5 1.5 4.61193 1.5 4.75V5.52618Z" fill="black"/>
</svg>

<svg xmlns="http://www.w3.org/2000/svg" width="24" height="24"><path fill-rule="evenodd" d="M15.5 17v-1a3 3 0 116 0v1h.5a1 1 0 011 1v5a1 1 0 01-1 1h-7a1 1 0 01-1-1v-5a1 1 0 011-1h.5zm1.5-1a1.5 1.5 0 013 0v1h-3v-1z"/><path fill-rule="evenodd" d="M0 4.75C0 3.784.784 3 1.75 3h20.5c.966 0 1.75.784 1.75 1.75v6.625a.75.75 0 01-1.5 0V7.187l-9.748 4.636a1.75 1.75 0 01-1.504 0L1.5 7.187V18.75c0 .138.112.25.25.25h7.5a.75.75 0 010 1.5h-7.5A1.75 1.75 0 010 18.75v-14zm1.5.776l10.393 4.943a.25.25 0 00.214 0L22.5 5.526V4.75a.25.25 0 00-.25-.25H1.75a.25.25 0 00-.25.25v.776z"/></svg>
